source/img/sprite/odnoklassniki.svg

<svg width="22" height="22" viewBox="0 0 22 22" fill="none" xmlns="http://www.w3.org/2000/svg">
<path d="M11 3.32798C12.3229 3.32798 13.3988 4.38262 13.3988 5.67944C13.3988 6.97235 12.3229 8.02699 11 8.02699C9.67708 8.02699 8.60121 6.97235 8.60121 5.67944C8.60121 4.38262 9.67708 3.32798 11 3.32798ZM11 11.355C14.1957 11.355 16.7938 8.8082 16.7938 5.67944C16.7938 2.54676 14.1957 0 11 0C7.80427 0 5.21023 2.54676 5.21023 5.67944C5.21023 8.8082 7.80427 11.355 11 11.355ZM13.343 15.9876C14.5225 15.722 15.6581 15.2649 16.7061 14.6204C17.499 14.1322 17.7381 13.1049 17.24 12.3276C16.738 11.5464 15.694 11.312 14.897 11.8042C12.5261 13.265 9.47386 13.265 7.09898 11.8042C6.30603 11.312 5.25805 11.5464 4.75996 12.3276C4.26188 13.1049 4.50096 14.1322 5.29391 14.6204C6.34189 15.2649 7.47753 15.722 8.657 15.9876L5.41744 19.1593C4.75598 19.8077 4.75598 20.8624 5.41744 21.5108C5.75215 21.835 6.1825 21.999 6.61683 21.999C7.05116 21.999 7.4855 21.835 7.82021 21.5108L11 18.3937L14.1838 21.5108C14.8452 22.1631 15.9171 22.1631 16.5826 21.5108C17.244 20.8624 17.244 19.8077 16.5826 19.1593L13.343 15.9876Z" fill="#316DC2"/>
</svg>

<svg viewBox="0 0 22 22" fill="none" xmlns="http://www.w3.org/2000/svg"><path d="M11 3.33c1.32 0 2.4 1.05 2.4 2.35s-1.08 2.35-2.4 2.35a2.38 2.38 0 0 1-2.4-2.35c0-1.3 1.08-2.35 2.4-2.35Zm0 8.03c3.2 0 5.8-2.55 5.8-5.68s-2.6-5.68-5.8-5.68a5.74 5.74 0 0 0-5.79 5.68c0 3.13 2.6 5.68 5.79 5.68Zm2.34 4.63c1.18-.27 2.32-.73 3.37-1.37a1.65 1.65 0 0 0 .53-2.3 1.71 1.71 0 0 0-2.34-.52 7.49 7.49 0 0 1-7.8 0 1.72 1.72 0 0 0-2.34.53c-.5.77-.26 1.8.53 2.29 1.05.64 2.19 1.1 3.37 1.37l-3.24 3.17c-.66.65-.66 1.7 0 2.35a1.72 1.72 0 0 0 2.4 0l3.18-3.12 3.18 3.12c.67.65 1.74.65 2.4 0 .66-.65.66-1.7 0-2.35l-3.24-3.17Z" fill="#316DC2"/></svg>
